icons/nurse.svg

<svg width="48" height="48" viewBox="0 0 48 48" fill="none" xmlns="http://www.w3.org/2000/svg">
<path d="M27 13V11H25V9H23V11H21V13H23V15H25V13H27Z" fill="black"/>
<path fill-rule="evenodd" clip-rule="evenodd" d="M31.3193 16.7665L33.2976 11.1614C33.834 9.64176 33.0697 7.92161 31.4695 7.41419C29.6096 6.82444 26.569 6 24 6C21.431 6 18.3904 6.82444 16.5305 7.41419C14.9303 7.92161 14.166 9.64175 14.7024 11.1614L16.6807 16.7665C16.2429 17.7563 16 18.8509 16 20C16 24.4183 19.5817 28 24 28C28.4183 28 32 24.4183 32 20C32 18.8509 31.7571 17.7563 31.3193 16.7665ZM24 8C21.7606 8 18.971 8.73846 17.1351 9.32064C16.6753 9.46642 16.4055 9.97763 16.5884 10.4958L18.6122 16.23C22.1994 15.09 25.8006 15.09 29.3878 16.23L31.4116 10.4958C31.5945 9.97763 31.3247 9.46642 30.8649 9.32064C29.029 8.73846 26.2394 8 24 8ZM29.8063 18.4811L29.805 18.4808C29.7522 18.4703 29.7 18.4555 29.6489 18.4363C25.8753 17.0212 22.1247 17.0212 18.3511 18.4363C18.2996 18.4556 18.247 18.4706 18.1937 18.4811C18.0673 18.9657 18 19.4746 18 20C18 23.3137 20.6863 26 24 26C27.3137 26 30 23.3137 30 20C30 19.4746 29.9327 18.9657 29.8063 18.4811Z" fill="black"/>
<path d="M34 34H36V36H34V38H32V36H30V34H32V32H34V34Z" fill="black"/>
<path fill-rule="evenodd" clip-rule="evenodd" d="M16.8786 28C16.8786 28 6 31.3932 6 35.4669V42.0002H42V35.4669C42 31.3932 31.1214 28 31.1214 28L25.1492 32.1931C24.4596 32.6773 23.5404 32.6773 22.8508 32.1931L16.8786 28ZM31.441 30.2193L26.2985 33.8299C24.9192 34.7983 23.0808 34.7983 21.7015 33.8299L16.559 30.2193C16.3582 30.2906 16.1299 30.3734 15.88 30.4669C14.9001 30.8337 13.6095 31.3579 12.3325 31.9953C11.0365 32.6422 9.84957 33.3592 9.01561 34.0878C8.11492 34.8746 8 35.3426 8 35.4669V40.0002H40V35.4669C40 35.3426 39.8851 34.8746 38.9844 34.0878C38.1504 33.3592 36.9635 32.6422 35.6675 31.9953C34.3905 31.3579 33.0999 30.8337 32.12 30.4669C31.8701 30.3734 31.6418 30.2906 31.441 30.2193Z" fill="black"/>
</svg>

<svg
  xmlns="http://www.w3.org/2000/svg"
  width="24"
  height="24"
  viewBox="0 0 24 24"
  fill="none"
  stroke="currentColor"
  stroke-width="2"
  stroke-linecap="round"
  stroke-linejoin="round"
>
  <path d="M27 13v-2h-2V9h-2v2h-2v2h2v2h2v-2z" />
  <path
    fill-rule="evenodd"
    d="m31.32 16.767 1.978-5.606c.536-1.52-.228-3.24-1.829-3.747C29.61 6.824 26.57 6 24 6s-5.61.824-7.47 1.414c-1.6.508-2.364 2.228-1.828 3.747l1.979 5.606a8 8 0 1 0 14.639 0M24 8c-2.24 0-5.029.738-6.865 1.32-.46.146-.73.658-.547 1.176l2.024 5.734c3.587-1.14 7.189-1.14 10.776 0l2.024-5.734c.183-.518-.087-1.03-.547-1.175C29.029 8.738 26.239 8 24 8m5.806 10.481h-.001a1 1 0 0 1-.156-.045c-3.774-1.415-7.524-1.415-11.298 0a1 1 0 0 1-.157.045 6 6 0 1 0 11.613 0"
    clip-rule="evenodd"
  />
  <path d="M34 34h2v2h-2v2h-2v-2h-2v-2h2v-2h2z" />
  <path
    fill-rule="evenodd"
    d="M16.879 28S6 31.393 6 35.467V42h36v-6.533C42 31.393 31.121 28 31.121 28l-5.972 4.193a2 2 0 0 1-2.298 0zm14.562 2.22-5.142 3.61a4 4 0 0 1-4.597 0l-5.143-3.61a37.796 37.796 0 0 0-4.227 1.776c-1.296.646-2.482 1.363-3.316 2.092C8.115 34.875 8 35.343 8 35.467V40h32v-4.533c0-.124-.115-.592-1.016-1.38-.834-.728-2.02-1.445-3.317-2.092a38 38 0 0 0-3.547-1.528q-.376-.14-.679-.248"
    clip-rule="evenodd"
  />
</svg>
